src/main/resources/icons/DatabaseIcons/icons/manageDataSources_dark.svg

<svg xmlns="http://www.w3.org/2000/svg" width="16" height="16" viewBox="0 0 16 16">
  <g fill="none" fill-rule="evenodd">
    <path fill="#AFB1B3" d="M9.32407693,10.2883493 C8.28654949,9.80051132 7.5682669,8.74587166 7.5682669,7.52346811 C7.5682669,6.24196448 8.35768271,5.14483879 9.4767559,4.69184948 L9.4767559,7.82882643 L11.7669427,7.82882643 L11.7669427,4.69184948 C12.8860159,5.14483879 13.6754317,6.24196448 13.6754317,7.52346811 C13.6754317,8.74587152 12.9571493,9.80051107 11.9196221,10.2883492 L11.9196221,16.6918495 L9.32407693,16.6918495 L9.32407693,10.2883493 Z" transform="rotate(45 10.622 10.692)"/>
    <path fill="#AFB1B3" d="M8.40032742,7.01338099 C7.80807225,7.07830971 7.16794085,7.1137615 6.5,7.1137615 C3.46243388,7.1137615 1,6.38057643 1,5.47614682 C1,5.3579096 1,4.93495493 1,4.20728281 C2.21656017,4.90871407 4.22647384,5.36697248 6.5,5.36697248 C8.0520003,5.36697248 9.48115781,5.15342516 10.6189573,4.79475109 L8.40032742,7.01338099 Z M5.48774138,9.92596703 C2.93369201,9.79139204 1,9.15693475 1,8.39456283 C1,8.27462199 1,7.82503932 1,7.04581481 C2.21656017,7.74724608 4.22647384,8.20550448 6.5,8.20550448 C6.74455064,8.20550448 6.98605124,8.20020238 7.22384255,8.18986586 L5.48774138,9.92596703 Z M2.91051027,12.5031981 C1.74060158,12.2028889 1,11.7583889 1,11.2623853 L1,9.88434682 C1.84256536,10.3701442 3.06567636,10.7392994 4.49334884,10.9203596 L2.91051027,12.5031981 Z M6.5,4.27522936 C3.46243388,4.27522936 1,3.54204429 1,2.63761468 C1,1.73318507 3.46243388,1 6.5,1 C9.53756612,1 12,1.73318507 12,2.63761468 C12,3.54204429 9.53756612,4.27522936 6.5,4.27522936 Z"/>
  </g>
</svg>

<svg xmlns="http://www.w3.org/2000/svg" width="16" height="16" viewBox="0 0 16 16"><rect id="frame" width="16" height="16" fill="none"/><g fill="#AFB1B3" fill-rule="evenodd"><path d="M9.99 9.489a3.054 3.054 0 0 1 4.065-3.85l-2.218 2.219 1.62 1.619 2.217-2.218a3.055 3.055 0 0 1-3.849 4.065l-4.528 4.528-1.835-1.835L9.99 9.489z"/><path d="M8.4 7.013c-.592.065-1.232.1-1.9.1-3.038 0-5.5-.732-5.5-1.637V4.207c1.217.702 3.226 1.16 5.5 1.16 1.552 0 2.981-.214 4.119-.572L8.4 7.013zM5.488 9.926C2.934 9.791 1 9.156 1 8.395v-1.35c1.217.702 3.226 1.16 5.5 1.16.245 0 .486-.005.724-.015L5.488 9.926zM2.91 12.503C1.74 12.203 1 11.758 1 11.263V9.883c.843.486 2.066.855 3.493 1.036l-1.582 1.583zM6.5 4.275c-3.038 0-5.5-.733-5.5-1.637C1 1.733 3.462 1 6.5 1s5.5.733 5.5 1.638c0 .904-2.462 1.637-5.5 1.637z"/></g></svg>
